X: 3
T: Bantry Bay
R: hornpipe
M: 4/4
L: 1/8
K: Gmaj
|: d>c |B>GA>G E>GD>E | G2 G>G G3 B | A>GA>B c>BA>G | B>dd>e d3 d |
e>de>f g>ag>e | d>ed>B A2 G>A | B>GA>G E>GD>E | G2 G>G G2 :|
|: B>c |d>BG>B d>BG>B | e2 e>d e2 d>e | f2 f>e d>ef>d | g2 g>f g2 z2 |
d2 e>f g>ag>e | d>ed>B A2 G>A | B>GA>G E>GD>E | G2 G>G G2 :|


Tune 1061	Setting 29980

